vendor/craftcms/cms/src/icons/solid/magnet.svg

<svg xmlns="http://www.w3.org/2000/svg" viewBox="0 0 448 512"><!--! Font Awesome Pro 6.7.2 by @fontawesome - https://fontawesome.com License - https://fontawesome.com/license (Commercial License) Copyright 2024 Fonticons, Inc. --><path d="M0 160l0 96C0 379.7 100.3 480 224 480s224-100.3 224-224l0-96-128 0 0 96c0 53-43 96-96 96s-96-43-96-96l0-96L0 160zm0-32l128 0 0-64c0-17.7-14.3-32-32-32L32 32C14.3 32 0 46.3 0 64l0 64zm320 0l128 0 0-64c0-17.7-14.3-32-32-32l-64 0c-17.7 0-32 14.3-32 32l0 64z"/></svg>

<svg xmlns="http://www.w3.org/2000/svg" viewBox="0 0 448 512"><!--! Font Awesome Pro 6.5.1 by @fontawesome - https://fontawesome.com License - https://fontawesome.com/license (Commercial License) Copyright 2023 Fonticons, Inc. --><path d="M0 160v96C0 379.7 100.3 480 224 480s224-100.3 224-224V160H320v96c0 53-43 96-96 96s-96-43-96-96V160H0zm0-32H128V64c0-17.7-14.3-32-32-32H32C14.3 32 0 46.3 0 64v64zm320 0H448V64c0-17.7-14.3-32-32-32H352c-17.7 0-32 14.3-32 32v64z"/></svg>
